svgs/light/trash-can-arrow-up.svg

<svg xmlns="http://www.w3.org/2000/svg" viewBox="0 0 448 512"><!--! Font Awesome Pro 6.3.0 by @fontawesome - https://fontawesome.com License - https://fontawesome.com/license (Commercial License) Copyright 2023 Fonticons, Inc. --><path d="M224 175.1C228.2 175.1 232.3 177.7 235.3 180.7L315.3 260.7C321.6 266.9 321.6 277.1 315.3 283.3C309.1 289.6 298.9 289.6 292.7 283.3L240 230.6V392C240 400.8 232.8 408 223.1 408C215.2 408 207.1 400.8 207.1 392V230.6L155.3 283.3C149.1 289.6 138.9 289.6 132.7 283.3C126.4 277.1 126.4 266.9 132.7 260.7L212.7 180.7C215.7 177.7 219.8 175.1 223.1 175.1L224 175.1zM310.1 22.56L336.9 64H432C440.8 64 448 71.16 448 80C448 88.84 440.8 96 432 96H416V432C416 476.2 380.2 512 336 512H112C67.82 512 32 476.2 32 432V96H16C7.164 96 0 88.84 0 80C0 71.16 7.164 64 16 64H111.1L137 22.56C145.8 8.526 161.2 0 177.7 0H270.3C286.8 0 302.2 8.526 310.1 22.56V22.56zM148.9 64H299.1L283.8 39.52C280.9 34.84 275.8 32 270.3 32H177.7C172.2 32 167.1 34.84 164.2 39.52L148.9 64zM64 432C64 458.5 85.49 480 112 480H336C362.5 480 384 458.5 384 432V96H64V432z"/></svg>

<svg xmlns="http://www.w3.org/2000/svg" viewBox="0 0 448 512"><!--! Font Awesome Pro 6.4.0 by @fontawesome - https://fontawesome.com License - https://fontawesome.com/license (Commercial License) Copyright 2023 Fonticons, Inc. --><path d="M164.2 39.5L148.9 64H299.1L283.8 39.5c-2.9-4.7-8.1-7.5-13.6-7.5H177.7c-5.5 0-10.6 2.8-13.6 7.5zM311 22.6L336.9 64H384h32 16c8.8 0 16 7.2 16 16s-7.2 16-16 16H416V432c0 44.2-35.8 80-80 80H112c-44.2 0-80-35.8-80-80V96H16C7.2 96 0 88.8 0 80s7.2-16 16-16H32 64h47.1L137 22.6C145.8 8.5 161.2 0 177.7 0h92.5c16.6 0 31.9 8.5 40.7 22.6zM64 96V432c0 26.5 21.5 48 48 48H336c26.5 0 48-21.5 48-48V96H64zm160 80c4.2 0 8.3 1.7 11.3 4.7l80 80c6.2 6.2 6.2 16.4 0 22.6s-16.4 6.2-22.6 0L240 230.6V392c0 8.8-7.2 16-16 16s-16-7.2-16-16V230.6l-52.7 52.7c-6.2 6.2-16.4 6.2-22.6 0s-6.2-16.4 0-22.6l80-80c3-3 7.1-4.7 11.3-4.7z"/></svg>
